src/images/autocapture-icon.svg

<svg xmlns="http://www.w3.org/2000/svg" width="119" height="119" fill="none" viewBox="0 0 119 119"><rect width="119" height="119" fill="#F96132" rx="8"/><path fill="#35416B" fill-rule="evenodd" d="M44.8937 49.8245H52.8105C52.9419 49.8243 53.0719 49.8491 53.1933 49.8973C53.3147 49.9455 53.425 50.0162 53.5178 50.1054C53.6107 50.1946 53.6844 50.3005 53.7346 50.4171C53.7847 50.5336 53.8105 50.6586 53.8104 50.7847V71.3404C53.8105 71.4665 53.7847 71.5914 53.7346 71.708C53.6844 71.8246 53.6107 71.9305 53.5178 72.0197C53.425 72.1089 53.3147 72.1796 53.1933 72.2278C53.0719 72.276 52.9419 72.3007 52.8105 72.3006H44.8937C44.7625 72.3006 44.6325 72.2758 44.5113 72.2275C44.39 72.1792 44.2799 72.1085 44.1871 72.0193C44.0944 71.9301 44.0208 71.8242 43.9707 71.7077C43.9206 71.5912 43.8949 71.4664 43.895 71.3404V50.7847C43.8949 50.6587 43.9206 50.5338 43.9707 50.4173C44.0208 50.3008 44.0944 50.195 44.1871 50.1058C44.2799 50.0166 44.39 49.9458 44.5113 49.8976C44.6325 49.8493 44.7625 49.8245 44.8937 49.8245Z" clip-rule="evenodd"/><path fill="#35416B" fill-rule="evenodd" d="M56.3056 42.0195H64.1314C64.3933 42.0195 64.6445 42.1194 64.8297 42.2973C65.0149 42.4752 65.1189 42.7164 65.1189 42.9679V69.9C65.1189 70.1515 65.0149 70.3928 64.8297 70.5706C64.6445 70.7485 64.3933 70.8484 64.1314 70.8484H56.3056C56.1759 70.8485 56.0474 70.8241 55.9275 70.7765C55.8077 70.7289 55.6987 70.659 55.607 70.5709C55.5153 70.4828 55.4426 70.3782 55.393 70.2631C55.3434 70.148 55.318 70.0246 55.3181 69.9V42.9679C55.318 42.8433 55.3434 42.7199 55.393 42.6048C55.4426 42.4897 55.5153 42.3851 55.607 42.297C55.6987 42.2089 55.8077 42.139 55.9275 42.0914C56.0474 42.0438 56.1759 42.0194 56.3056 42.0195Z" clip-rule="evenodd"/><path fill="#35416B" fill-rule="evenodd" d="M67.7588 38.5768H75.8228C76.0927 38.5768 76.3516 38.6798 76.5425 38.8631C76.7333 39.0464 76.8406 39.295 76.8406 39.5543V70.5194C76.8406 70.7786 76.7333 71.0273 76.5425 71.2106C76.3516 71.3939 76.0927 71.4969 75.8228 71.4969H67.7588C67.6251 71.497 67.4927 71.4718 67.3691 71.4228C67.2456 71.3737 67.1333 71.3017 67.0388 71.2109C66.9442 71.1201 66.8692 71.0123 66.8181 70.8936C66.7671 70.775 66.7408 70.6478 66.741 70.5194V39.5543C66.741 39.295 66.8482 39.0464 67.0391 38.8631C67.23 38.6798 67.4888 38.5768 67.7588 38.5768Z" clip-rule="evenodd"/><path fill="#35416B" fill-rule="evenodd" d="M79.4426 42.3022H86.9066C87.1563 42.3022 87.3958 42.3975 87.5723 42.5671C87.7489 42.7366 87.8481 42.9666 87.8481 43.2064V66.7603C87.8481 67.0001 87.7489 67.2301 87.5723 67.3997C87.3958 67.5692 87.1563 67.6645 86.9066 67.6645H79.4426C79.3188 67.6646 79.1963 67.6413 79.0819 67.596C78.9676 67.5506 78.8637 67.484 78.7761 67.4001C78.6886 67.3161 78.6192 67.2164 78.5718 67.1066C78.5244 66.9968 78.5 66.8792 78.5 66.7603V43.2064C78.5 43.0876 78.5244 42.9699 78.5718 42.8601C78.6192 42.7504 78.6886 42.6507 78.7761 42.5667C78.8637 42.4827 78.9676 42.4161 79.0819 42.3708C79.1963 42.3254 79.3188 42.3021 79.4426 42.3022Z" clip-rule="evenodd"/><path fill="#F7A501" fill-rule="evenodd" d="M51.7394 37.7109H65.8288C65.9525 37.7105 66.075 37.7335 66.1894 37.7786C66.3038 37.8238 66.4078 37.8901 66.4954 37.974C66.583 38.0578 66.6525 38.1574 66.6999 38.2671C66.7474 38.3767 66.7718 38.4943 66.7718 38.6131V47.4446C66.7718 47.6839 66.6728 47.9133 66.4967 48.0825C66.3205 48.2517 66.0816 48.3467 65.8324 48.3467H51.7394C51.4903 48.3467 51.2513 48.2517 51.0752 48.0825C50.899 47.9133 50.8 47.6839 50.8 47.4446V38.6131C50.8 38.3738 50.899 38.1444 51.0752 37.9752C51.2513 37.806 51.4903 37.7109 51.7394 37.7109Z" clip-rule="evenodd"/><path stroke="#F7A501" stroke-linecap="round" stroke-linejoin="round" stroke-width="1.094" d="M52.7402 46.6173L48.8767 51.8975"/><path fill="#fff" fill-rule="evenodd" d="M53.8331 43.6958H61.4651C61.706 43.6958 61.9016 43.9335 61.9016 44.2274C61.9016 44.5214 61.706 44.7591 61.4651 44.7591H53.8331C53.5922 44.7591 53.3967 44.5214 53.3967 44.2274C53.3967 43.9335 53.5922 43.6958 53.8331 43.6958Z" clip-rule="evenodd"/><path fill="#fff" fill-rule="evenodd" d="M53.9025 41.7017H63.5805C63.7274 41.7019 63.8682 41.7581 63.972 41.8579C64.0758 41.9577 64.1341 42.093 64.1341 42.2341C64.1341 42.3751 64.0758 42.5103 63.972 42.61C63.8681 42.7097 63.7273 42.7657 63.5805 42.7657H53.9025C53.8298 42.7659 53.7577 42.7522 53.6904 42.7255C53.6232 42.6988 53.5621 42.6597 53.5106 42.6103C53.4591 42.5609 53.4182 42.5023 53.3904 42.4377C53.3625 42.3732 53.3481 42.304 53.3481 42.2341C53.3481 42.0929 53.4066 41.9575 53.5105 41.8576C53.6145 41.7578 53.7555 41.7017 53.9025 41.7017Z" clip-rule="evenodd"/><path fill="#fff" fill-rule="evenodd" d="M53.7978 39.8135H63.475C63.622 39.8135 63.763 39.8696 63.867 39.9694C63.9709 40.0693 64.0294 40.2047 64.0294 40.3459C64.0291 40.487 63.9706 40.6222 63.8667 40.7219C63.7627 40.8216 63.6219 40.8776 63.475 40.8776H53.7978C53.6509 40.8776 53.51 40.8216 53.4061 40.7219C53.3021 40.6222 53.2436 40.487 53.2434 40.3459C53.2434 40.2047 53.3018 40.0693 53.4058 39.9694C53.5098 39.8696 53.6508 39.8135 53.7978 39.8135Z" clip-rule="evenodd"/><path fill="#fff" fill-rule="evenodd" d="M63.713 44.8069H68.6291C68.7219 44.8072 68.8108 44.8428 68.8763 44.9059C68.9417 44.969 68.9785 45.0544 68.9785 45.1435V50.1206C68.9785 50.2097 68.9417 50.2951 68.8763 50.3582C68.8108 50.4213 68.7219 50.4569 68.6291 50.4572H63.713C63.6671 50.4571 63.6217 50.4483 63.5794 50.4313C63.5371 50.4143 63.4986 50.3894 63.4663 50.3582C63.434 50.3269 63.4083 50.2898 63.3909 50.2491C63.3735 50.2083 63.3646 50.1647 63.3647 50.1206V45.1435C63.3646 45.0994 63.3735 45.0558 63.3909 45.015C63.4083 44.9743 63.434 44.9372 63.4663 44.9059C63.4986 44.8747 63.5371 44.8498 63.5794 44.8328C63.6217 44.8158 63.6671 44.807 63.713 44.8069Z" clip-rule="evenodd"/><path stroke="#F96132" stroke-linecap="round" stroke-linejoin="round" stroke-width="1.094" d="M64.6704 47.6877L65.7714 48.7235L67.661 46.6315"/><path fill="#BEBEBE" fill-rule="evenodd" d="M47.5946 68.7314C49.7806 66.1246 53.5848 65.5951 56.3996 67.5058C59.512 69.6184 60.2456 73.894 58.0156 76.9234L41.6731 99.1235C39.0818 102.644 34.1715 103.486 30.5554 101.03L27.8311 99.1806C26.9044 98.5514 26.2827 97.5637 26.1159 96.4561C25.9446 95.3175 26.2701 94.1602 27.0099 93.278L47.5946 68.7314Z" clip-rule="evenodd"/><path fill="#BEBEBE" fill-rule="evenodd" d="M66.5515 21.5691C56.9562 21.3773 47.4356 25.6099 41.4789 33.7025C31.9479 46.6494 35.1502 64.5681 48.6312 73.7215C62.1122 82.8749 80.7709 79.7977 90.3009 66.8499C99.8309 53.902 96.6277 35.987 83.1458 26.8335C78.2879 23.5229 72.507 21.6889 66.5515 21.5691ZM66.1729 30.3107C70.245 30.3922 74.1978 31.646 77.5194 33.9097C86.7399 40.1696 88.9303 52.4211 82.4122 61.2727C75.8942 70.1243 63.1373 72.2306 53.9206 65.9708C44.7039 59.7109 42.5097 47.4676 49.024 38.6087C50.9556 35.9812 53.5302 33.8501 56.5211 32.4031C59.5121 30.9561 62.8276 30.2375 66.1758 30.3107H66.1729Z" clip-rule="evenodd"/><path fill="#fff" fill-rule="evenodd" d="M44.3944 67.1762C46.4444 64.3912 50.3292 63.7247 53.1903 65.6672C56.2099 67.7172 56.9216 71.8656 54.7581 74.8049L37.3262 98.4865C35.2762 101.271 31.3914 101.938 28.5303 99.9956C25.5107 97.9455 24.7989 93.7971 26.9625 90.8578L44.3944 67.1762Z" clip-rule="evenodd"/><path fill="#fff" fill-rule="evenodd" d="M66.0704 18.0065C56.475 17.811 46.9497 22.0473 40.9977 30.1398C31.4667 43.0877 34.668 61.0054 48.15 70.158C61.6319 79.3105 80.2888 76.2342 89.8207 63.2854C99.3526 50.3366 96.1475 32.4225 82.6656 23.2691C77.8069 19.9593 72.0259 18.1261 66.0704 18.0065ZM65.6918 26.7472C69.7651 26.829 73.7191 28.083 77.042 30.3471C86.2625 36.606 88.4529 48.8585 81.9348 57.7101C75.4168 66.5617 62.6599 68.668 53.4432 62.409C44.2265 56.1501 42.0285 43.9004 48.5504 35.0461C50.4812 32.4195 53.0546 30.2889 56.0441 28.8418C59.0336 27.3947 62.3476 26.6754 65.6946 26.7472H65.6918Z" clip-rule="evenodd"/></svg>

<svg fill="none" viewBox="0 0 119 119"><rect width="119" height="119" fill="#F96132" rx="8"/><path fill="#35416B" fill-rule="evenodd" d="M44.894 49.825h7.916a1.033 1.033 0 01.708.28.928.928 0 01.293.68V71.34a.929.929 0 01-.293.68 1.035 1.035 0 01-.707.28h-7.917a1.034 1.034 0 01-.707-.28.927.927 0 01-.292-.679V50.784a.928.928 0 01.292-.68 1.034 1.034 0 01.707-.281zm11.412-7.806h7.825c.262 0 .513.1.699.278a.93.93 0 01.289.67V69.9a.93.93 0 01-.29.67 1.008 1.008 0 01-.698.278h-7.825a1.023 1.023 0 01-.699-.277.915.915 0 01-.289-.67V42.967a.915.915 0 01.289-.671.99.99 0 01.699-.277zm11.453-3.442h8.064c.27 0 .529.103.72.286.19.183.298.432.298.691V70.52c0 .26-.108.508-.298.692a1.04 1.04 0 01-.72.286h-8.064a1.02 1.02 0 01-.72-.286.943.943 0 01-.298-.691V39.553c0-.259.107-.508.298-.69.191-.184.45-.287.72-.287zm11.684 3.725h7.464a.96.96 0 01.665.265c.177.17.276.4.276.64V66.76c0 .24-.1.47-.276.64a.962.962 0 01-.665.264h-7.464a.978.978 0 01-.667-.264.873.873 0 01-.276-.64V43.206a.873.873 0 01.276-.64.976.976 0 01.666-.264z" clip-rule="evenodd"/><path fill="#F7A501" fill-rule="evenodd" d="M51.74 37.71h14.089a.975.975 0 01.666.264.9.9 0 01.277.64v8.83c0 .24-.1.47-.275.639a.96.96 0 01-.665.264H51.74a.96.96 0 01-.664-.264.884.884 0 01-.275-.638v-8.832c0-.24.099-.469.275-.638a.96.96 0 01.664-.264z" clip-rule="evenodd"/><path stroke="#F7A501" stroke-linecap="round" stroke-linejoin="round" stroke-width="1.094" d="M52.74 46.617l-3.863 5.28"/><path fill="#fff" fill-rule="evenodd" d="M53.833 43.696h7.632c.241 0 .437.238.437.531 0 .294-.196.532-.437.532h-7.632c-.24 0-.436-.238-.436-.532 0-.293.195-.531.436-.531zm.07-1.994h9.678c.146 0 .287.056.391.156.104.1.162.235.162.376a.521.521 0 01-.162.376.566.566 0 01-.392.156h-9.677a.571.571 0 01-.392-.156.53.53 0 01-.163-.376c0-.141.059-.276.163-.376a.566.566 0 01.392-.156zm-.105-1.889h9.677a.57.57 0 01.392.156c.104.1.162.236.162.377a.523.523 0 01-.162.376.566.566 0 01-.392.156h-9.677a.566.566 0 01-.392-.156.522.522 0 01-.163-.376c0-.141.059-.277.163-.377a.566.566 0 01.392-.156zm9.915 4.994h4.916c.093 0 .182.036.247.099a.33.33 0 01.102.238v4.977a.33.33 0 01-.102.237.358.358 0 01-.247.1h-4.916a.36.36 0 01-.247-.1.336.336 0 01-.101-.237v-4.977a.325.325 0 01.101-.238.352.352 0 01.247-.1z" clip-rule="evenodd"/><path stroke="#F96132" stroke-linecap="round" stroke-linejoin="round" stroke-width="1.094" d="M64.67 47.688l1.101 1.035 1.89-2.091"/><path fill="#BEBEBE" fill-rule="evenodd" d="M47.595 68.731a6.63 6.63 0 0110.42 8.192l-16.342 22.2a8.131 8.131 0 01-11.118 1.907l-2.724-1.85a4.016 4.016 0 01-.821-5.902l20.585-24.547z" clip-rule="evenodd"/><path fill="#BEBEBE" fill-rule="evenodd" d="M66.552 21.57c-9.596-.193-19.116 4.04-25.073 12.133-9.531 12.946-6.329 30.865 7.152 40.019 13.481 9.153 32.14 6.076 41.67-6.872 9.53-12.948 6.327-30.863-7.155-40.016-4.858-3.311-10.639-5.145-16.594-5.265zm-.38 8.74a20.906 20.906 0 0111.347 3.6c9.22 6.26 11.411 18.511 4.893 27.363-6.518 8.851-19.275 10.958-28.491 4.698-9.217-6.26-11.411-18.503-4.897-27.362a20.218 20.218 0 017.497-6.206 21.127 21.127 0 019.655-2.092h-.003z" clip-rule="evenodd"/><path fill="#fff" fill-rule="evenodd" d="M44.394 67.176a6.434 6.434 0 1110.364 7.629L37.326 98.486a6.435 6.435 0 01-10.364-7.628l17.432-23.682z" clip-rule="evenodd"/><path fill="#fff" fill-rule="evenodd" d="M66.07 18.006c-9.595-.195-19.12 4.041-25.072 12.134-9.531 12.948-6.33 30.865 7.152 40.018 13.482 9.153 32.139 6.076 41.67-6.873 9.533-12.948 6.328-30.862-7.154-40.016-4.86-3.31-10.64-5.143-16.596-5.262zm-.378 8.741a20.918 20.918 0 0111.35 3.6c9.22 6.259 11.41 18.511 4.893 27.363-6.518 8.852-19.275 10.958-28.492 4.699C44.227 56.15 42.03 43.9 48.55 35.046a20.218 20.218 0 017.494-6.204 21.128 21.128 0 019.65-2.095h-.002z" clip-rule="evenodd"/></svg>
